X:1
T: Dr. Cameron (Banchory)
C:Alexander Walker
R:Strathspey
Q: 128
K:Dm
M:4/4
L:1/16
|:DDD2 FED2 A3D F4|A3D F3D G3C E3C|DDD2 FED2 A3d f3a|g3e c3e dD3 D4|
DDD2 FED2 A3D F4|A3D F3D G3C E3C|DDD2 FED2 A3d f3a|g3e c3e dD3 D2c2|
d3e f3d a3d b3d|c3d e3c g3c a3c|d3e f3d a3d b3d|((3c2d2e2) ((3A2B2c2) dD3 D3d|
f3d ddd2 A3d F3d|e3c ccc2 G3c E3c|DDD2 FED2 A3d f3a|g3e c3e ddd2 d4:|
